X:154occ
T:Mrs. Power (Carolan's Concerto)
C:Turlough O'Connor (1670-1738)
B:Complete Works Of Turlough O'Carolan (PB - no pub - no date - fleamarket find)
Z:by Chris Gilb; check and conversions by Vince Brennan (www.sosyourmom.com)
I:abc2nwc
M:C|
L:1/8
K:G
C:ALLEGRO
g2g2g2fe|dedc B2d2|A2d2G2d2|efga f2d2|
g2d'2bc'd'b|abc'a bc'd'b|c'2e'2bc' d'2|c'bag f2d2|
egeg c'2c'2|dfdf b2b2|cece a2a2|{g}f2ef d2dc|
BcdB ABcA|BcdB cdec|d2g2a2a/2 g/2 f|g4G2||
Bc|dcBA G2d2|F2d2E2e2|D2g2gfed|c2b2agfe|
dd'dd' cc'cc'|gbgb fafa|dgdg fgaf|dd'dd' cac'a|
agfe dcBA|GDB,D GDB,D|acec acec|BGdG cBAG|
gBdB edcB|ABcd efga|d2g2a2a/2g/2f|g4G4|]

